Numix-Light/16/status/indicator-keyboard-Ph-3.svg

<?xml version="1.0" encoding="UTF-8" standalone="no"?>
<svg
   xmlns:dc="http://purl.org/dc/elements/1.1/"
   xmlns:cc="http://creativecommons.org/ns#"
   xmlns:rdf="http://www.w3.org/1999/02/22-rdf-syntax-ns#"
   xmlns:svg="http://www.w3.org/2000/svg"
   xmlns="http://www.w3.org/2000/svg"
   xmlns:sodipodi="http://sodipodi.sourceforge.net/DTD/sodipodi-0.dtd"
   xmlns:inkscape="http://www.inkscape.org/namespaces/inkscape"
   viewBox="0 0 16 16"
   id="svg2"
   version="1.1"
   inkscape:version="0.91 r13725"
   sodipodi:docname="indicator-keyboard-Ph-3.svg">
  <metadata
     id="metadata14">
    <rdf:RDF>
      <cc:Work
         rdf:about="">
        <dc:format>image/svg+xml</dc:format>
        <dc:type
           rdf:resource="http://purl.org/dc/dcmitype/StillImage" />
      </cc:Work>
    </rdf:RDF>
  </metadata>
  <defs
     id="defs12" />
  <sodipodi:namedview
     pagecolor="#ffffff"
     bordercolor="#666666"
     borderopacity="1"
     objecttolerance="10"
     gridtolerance="10"
     guidetolerance="10"
     inkscape:pageopacity="0"
     inkscape:pageshadow="2"
     inkscape:window-width="640"
     inkscape:window-height="480"
     id="namedview10"
     showgrid="false"
     inkscape:zoom="14.75"
     inkscape:cx="8"
     inkscape:cy="8"
     inkscape:window-x="65"
     inkscape:window-y="24"
     inkscape:window-maximized="0"
     inkscape:current-layer="svg2" />
  <path
     style="fill:#353535;fill-opacity:1"
     d="M 1.5996094 0 C 0.71320937 2.9605947e-16 0 0.71320937 0 1.5996094 L 0 14.400391 C 2.9605947e-16 15.286791 0.71320937 16 1.5996094 16 L 14.400391 16 C 15.286791 16 16 15.286791 16 14.400391 L 16 1.5996094 C 16 0.71320937 15.286791 0 14.400391 0 L 1.5996094 0 z M 7.6503906 4.1113281 L 7.6503906 6.578125 C 7.8423906 6.506125 8.036375 6.4520156 8.234375 6.4160156 C 8.432375 6.3740156 8.630125 6.3535156 8.828125 6.3535156 C 9.188125 6.3535156 9.4885156 6.4038594 9.7285156 6.5058594 C 9.9685156 6.6078594 10.160687 6.7552656 10.304688 6.9472656 C 10.448688 7.1332656 10.547562 7.3570938 10.601562 7.6210938 C 10.661562 7.8850937 10.691406 8.1761406 10.691406 8.4941406 L 10.691406 11.095703 L 10.107422 11.095703 L 10.107422 8.6835938 C 10.107422 8.3535938 10.083156 8.0756562 10.035156 7.8476562 C 9.9931563 7.6196563 9.9185469 7.4330625 9.8105469 7.2890625 C 9.7085469 7.1450625 9.5704844 7.0424219 9.3964844 6.9824219 C 9.2224844 6.9164219 9.0022812 6.8847656 8.7382812 6.8847656 C 8.6362812 6.8847656 8.52625 6.8921562 8.40625 6.9101562 C 8.29225 6.9281563 8.1840313 6.9506094 8.0820312 6.9746094 C 7.9800313 6.9926094 7.8867344 7.0131094 7.8027344 7.0371094 C 7.7247344 7.0611094 7.6743906 7.0797969 7.6503906 7.0917969 L 7.6503906 11.095703 L 7.0644531 11.095703 L 7.0644531 4.2207031 L 7.6503906 4.1113281 z M 3.3496094 4.8046875 C 4.2316094 4.8046875 4.8883125 4.9725937 5.3203125 5.3085938 C 5.7523125 5.6445937 5.96875 6.1222344 5.96875 6.7402344 C 5.96875 7.0942344 5.9052969 7.3964375 5.7792969 7.6484375 C 5.6532969 7.8944375 5.4742344 8.0959531 5.2402344 8.2519531 C 5.0062344 8.4019531 4.717 8.5139375 4.375 8.5859375 C 4.039 8.6519375 3.6584219 8.6835937 3.2324219 8.6835938 L 2.3867188 8.6835938 L 2.3867188 11.095703 L 1.7753906 11.095703 L 1.7753906 4.9765625 C 1.9913906 4.9165625 2.24325 4.8736094 2.53125 4.8496094 C 2.82525 4.8196094 3.0976094 4.8046875 3.3496094 4.8046875 z M 3.3769531 5.3359375 C 3.1489531 5.3359375 2.9530156 5.3452813 2.7910156 5.3632812 C 2.6350156 5.3752813 2.5007188 5.3864375 2.3867188 5.3984375 L 2.3867188 8.1523438 L 3.1601562 8.1523438 C 3.4901562 8.1523438 3.7867813 8.1356094 4.0507812 8.0996094 C 4.3207812 8.0576094 4.5503281 7.9848125 4.7363281 7.8828125 C 4.9283281 7.7748125 5.0737813 7.6274062 5.1757812 7.4414062 C 5.2777813 7.2554062 5.3300781 7.0184688 5.3300781 6.7304688 C 5.3300781 6.4544687 5.2722031 6.226875 5.1582031 6.046875 C 5.0502031 5.866875 4.9027969 5.7250469 4.7167969 5.6230469 C 4.5367969 5.5150469 4.3297031 5.4404375 4.0957031 5.3984375 C 3.8617031 5.3564375 3.6229531 5.3359375 3.3769531 5.3359375 z M 12.857422 8.7539062 C 13.060222 8.7539062 13.232653 8.7793781 13.376953 8.8300781 C 13.525153 8.8807781 13.648594 8.953275 13.746094 9.046875 C 13.843594 9.136575 13.916091 9.2463 13.962891 9.375 C 14.009691 9.4997999 14.033203 9.6350031 14.033203 9.7832031 C 14.033203 10.021103 13.968544 10.217041 13.839844 10.369141 C 13.715044 10.517341 13.552416 10.625106 13.353516 10.691406 C 13.462716 10.718706 13.568522 10.759859 13.669922 10.818359 C 13.775222 10.872959 13.869272 10.945456 13.951172 11.035156 C 14.033072 11.120956 14.099691 11.226762 14.150391 11.351562 C 14.201091 11.476363 14.224609 11.623316 14.224609 11.791016 C 14.224609 11.962616 14.195213 12.119372 14.132812 12.263672 C 14.074313 12.407972 13.984181 12.535331 13.863281 12.644531 C 13.746281 12.749831 13.595409 12.834084 13.412109 12.896484 C 13.228809 12.954984 13.015231 12.984375 12.769531 12.984375 C 12.640831 12.984375 12.521309 12.974578 12.412109 12.955078 C 12.306809 12.939478 12.212759 12.919884 12.130859 12.896484 C 12.048959 12.873084 11.978422 12.849572 11.919922 12.826172 C 11.865322 12.802772 11.824175 12.783178 11.796875 12.767578 L 11.896484 12.427734 C 11.919884 12.443334 11.959072 12.462928 12.013672 12.486328 C 12.068272 12.509728 12.132931 12.533241 12.207031 12.556641 C 12.285031 12.576141 12.371244 12.593775 12.464844 12.609375 C 12.562344 12.624975 12.66815 12.632813 12.78125 12.632812 C 13.15175 12.632812 13.416272 12.556397 13.576172 12.404297 C 13.736072 12.248297 13.816406 12.040597 13.816406 11.779297 C 13.816406 11.607697 13.783097 11.464662 13.716797 11.351562 C 13.654397 11.238462 13.566225 11.148331 13.453125 11.082031 C 13.343925 11.011831 13.214606 10.962847 13.066406 10.935547 C 12.922106 10.904347 12.769269 10.888672 12.605469 10.888672 L 12.546875 10.888672 L 12.546875 10.574219 L 12.681641 10.574219 C 12.786941 10.574219 12.892753 10.564422 13.001953 10.544922 C 13.115053 10.521522 13.216941 10.480375 13.306641 10.421875 C 13.400241 10.363375 13.476656 10.285 13.535156 10.1875 C 13.597556 10.09 13.628906 9.9646001 13.628906 9.8125 C 13.628906 9.6838 13.607353 9.5760281 13.564453 9.4863281 C 13.521553 9.3927281 13.462772 9.3182719 13.388672 9.2636719 C 13.318472 9.2090719 13.234219 9.1698844 13.136719 9.1464844 C 13.043119 9.1191844 12.945144 9.1054687 12.839844 9.1054688 C 12.629244 9.1054688 12.464656 9.1348594 12.347656 9.1933594 C 12.230656 9.2518594 12.134647 9.3067219 12.060547 9.3574219 L 11.896484 9.0585938 C 11.935484 9.0312937 11.984469 8.9999437 12.042969 8.9648438 C 12.105369 8.9297437 12.177866 8.8964344 12.259766 8.8652344 C 12.341666 8.8340344 12.431797 8.8085625 12.529297 8.7890625 C 12.630697 8.7656625 12.740422 8.7539062 12.857422 8.7539062 z "
     id="path4" />
</svg>

<svg xmlns="http://www.w3.org/2000/svg" viewBox="0 0 16 16">
 <path d="m 1.6 0 c -0.886 0 -1.6 0.713 -1.6 1.6 l 0 12.801 c 0 0.886 0.713 1.6 1.6 1.6 l 12.801 0 c 0.886 0 1.6 -0.713 1.6 -1.6 l 0 -12.801 c 0 -0.886 -0.713 -1.6 -1.6 -1.6 l -12.801 0 z m 6.05 4.111 l 0 2.467 c 0.192 -0.072 0.386 -0.126 0.584 -0.162 c 0.198 -0.042 0.396 -0.063 0.594 -0.063 c 0.36 0 0.66 0.05 0.9 0.152 c 0.24 0.102 0.432 0.249 0.576 0.441 c 0.144 0.186 0.243 0.41 0.297 0.674 c 0.06 0.264 0.09 0.555 0.09 0.873 l 0 2.602 l -0.584 0 l 0 -2.412 c 0 -0.33 -0.024 -0.608 -0.072 -0.836 c -0.042 -0.228 -0.117 -0.415 -0.225 -0.559 c -0.102 -0.144 -0.24 -0.247 -0.414 -0.307 c -0.174 -0.066 -0.394 -0.098 -0.658 -0.098 c -0.102 0 -0.212 0.007 -0.332 0.025 c -0.114 0.018 -0.222 0.04 -0.324 0.064 c -0.102 0.018 -0.195 0.038 -0.279 0.063 c -0.078 0.024 -0.128 0.043 -0.152 0.055 l 0 4 l -0.586 0 l 0 -6.875 l 0.586 -0.109 z m -4.301 0.693 c 0.882 0 1.539 0.168 1.971 0.504 c 0.432 0.336 0.648 0.814 0.648 1.432 c 0 0.354 -0.063 0.656 -0.189 0.908 c -0.126 0.246 -0.305 0.448 -0.539 0.604 c -0.234 0.15 -0.523 0.262 -0.865 0.334 c -0.336 0.066 -0.717 0.098 -1.143 0.098 l -0.846 0 l 0 2.412 l -0.611 0 l 0 -6.119 c 0.216 -0.06 0.468 -0.103 0.756 -0.127 c 0.294 -0.03 0.566 -0.045 0.818 -0.045 z m 0.027 0.531 c -0.228 0 -0.424 0.009 -0.586 0.027 c -0.156 0.012 -0.29 0.023 -0.404 0.035 l 0 2.754 l 0.773 0 c 0.33 0 0.627 -0.017 0.891 -0.053 c 0.27 -0.042 0.5 -0.115 0.686 -0.217 c 0.192 -0.108 0.337 -0.255 0.439 -0.441 c 0.102 -0.186 0.154 -0.423 0.154 -0.711 c 0 -0.276 -0.058 -0.504 -0.172 -0.684 c -0.108 -0.18 -0.255 -0.322 -0.441 -0.424 c -0.18 -0.108 -0.387 -0.183 -0.621 -0.225 c -0.234 -0.042 -0.473 -0.063 -0.719 -0.063 z m 9.48 3.418 c 0.203 0 0.375 0.025 0.52 0.076 c 0.148 0.051 0.272 0.123 0.369 0.217 c 0.098 0.09 0.17 0.199 0.217 0.328 c 0.047 0.125 0.07 0.26 0.07 0.408 c 0 0.238 -0.065 0.434 -0.193 0.586 c -0.125 0.148 -0.287 0.256 -0.486 0.322 c 0.109 0.027 0.215 0.068 0.316 0.127 c 0.105 0.055 0.199 0.127 0.281 0.217 c 0.082 0.086 0.149 0.192 0.199 0.316 c 0.051 0.125 0.074 0.272 0.074 0.439 c 0 0.172 -0.029 0.328 -0.092 0.473 c -0.058 0.144 -0.149 0.272 -0.27 0.381 c -0.117 0.105 -0.268 0.19 -0.451 0.252 c -0.183 0.059 -0.397 0.088 -0.643 0.088 c -0.129 0 -0.248 -0.01 -0.357 -0.029 c -0.105 -0.016 -0.199 -0.035 -0.281 -0.059 c -0.082 -0.023 -0.152 -0.047 -0.211 -0.07 c -0.055 -0.023 -0.096 -0.043 -0.123 -0.059 l 0.1 -0.34 c 0.023 0.016 0.063 0.035 0.117 0.059 c 0.055 0.023 0.119 0.047 0.193 0.07 c 0.078 0.019 0.164 0.037 0.258 0.053 c 0.098 0.016 0.203 0.023 0.316 0.023 c 0.37 0 0.635 -0.076 0.795 -0.229 c 0.16 -0.156 0.24 -0.364 0.24 -0.625 c 0 -0.172 -0.033 -0.315 -0.1 -0.428 c -0.062 -0.113 -0.151 -0.203 -0.264 -0.27 c -0.109 -0.07 -0.239 -0.119 -0.387 -0.146 c -0.144 -0.031 -0.297 -0.047 -0.461 -0.047 l -0.059 0 l 0 -0.314 l 0.135 0 c 0.105 0 0.211 -0.01 0.32 -0.029 c 0.113 -0.023 0.215 -0.065 0.305 -0.123 c 0.094 -0.059 0.17 -0.137 0.229 -0.234 c 0.062 -0.098 0.094 -0.223 0.094 -0.375 c 0 -0.129 -0.022 -0.236 -0.064 -0.326 c -0.043 -0.094 -0.102 -0.168 -0.176 -0.223 c -0.07 -0.055 -0.154 -0.094 -0.252 -0.117 c -0.094 -0.027 -0.192 -0.041 -0.297 -0.041 c -0.211 0 -0.375 0.029 -0.492 0.088 c -0.117 0.059 -0.213 0.113 -0.287 0.164 l -0.164 -0.299 c 0.039 -0.027 0.088 -0.059 0.146 -0.094 c 0.062 -0.035 0.135 -0.068 0.217 -0.1 c 0.082 -0.031 0.172 -0.057 0.27 -0.076 c 0.101 -0.023 0.211 -0.035 0.328 -0.035 z" style="fill:#353535;fill-opacity:1"/>
</svg>
